usr/share/icons/biglinux-icons-material-dark/16/actions/align-horizontal-center.svg

<svg xmlns="http://www.w3.org/2000/svg" viewBox="0 0 16 16">
<defs id="defs3051">
<style id="current-color-scheme" type="text/css">
.ColorScheme-Text{color:#dedede}
</style>
</defs>
<path d="M7.5 2v1H5v4h2.5v2H3v4h4.5v1h1v-1H13V9H8.5V7H11V3H8.5V2zM6 4h4v2H6zm-2 6h8v2H4z" class="ColorScheme-Text" style="fill:currentColor;fill-opacity:1;stroke:none"/>
</svg>

<svg xmlns="http://www.w3.org/2000/svg" viewBox="0 0 16 16">
  <defs id="defs3051">
    <style type="text/css" id="current-color-scheme">
      .ColorScheme-Text {
        color:#dedede;
      }
      </style>
  </defs>
 <path style="fill:currentColor;fill-opacity:1;stroke:none" 
       d="M 7.5 2 L 7.5 3 L 5 3 L 5 7 L 7.5 7 L 7.5 9 L 3 9 L 3 13 L 7.5 13 L 7.5 14 L 8.5 14 L 8.5 13 L 13 13 L 13 9 L 8.5 9 L 8.5 7 L 11 7 L 11 3 L 8.5 3 L 8.5 2 L 7.5 2 z M 6 4 L 10 4 L 10 6 L 6 6 L 6 4 z M 4 10 L 12 10 L 12 12 L 4 12 L 4 10 z "
     class="ColorScheme-Text"
     />
</svg>
